X:1
T: Miss Caroline Thompson's Reel
C:
R:Reel
Q: 232
K:C
M:4/4
L:1/8
|:e|c2 ec d2 fd|c2 ec dB GB|c2 ec ce fa|gf ed c2 ce|
c2 ec d2 fd|c2 ec dB GB|c2 ec ce fa|gf ed c2 ce1/2f1/2|
ge cg af df|ec Ac BG Gf|ge cg af df|gf ed c2 ce1/2f1/2|
ge cg af df|ec Ac BG Ge|fd ec dB GB|Ac Bd c2 c:|
